src/assets/icons/products-icon.svg

<svg width="22" height="23" viewBox="0 0 22 23" fill="none" xmlns="http://www.w3.org/2000/svg">
<path d="M21.8496 18.0869H20.1318C19.687 18.1205 19.2864 18.2857 19 18.5312C18.6834 18.803 18.5412 19.1365 18.541 19.4443C18.5412 19.7522 18.6832 20.0856 19 20.3574C19.3217 20.6333 19.7869 20.8094 20.2979 20.8096H21.9521V22.8096H3.75684C2.80595 22.8095 1.86833 22.4868 1.15625 21.876C0.439476 21.2611 0.000143913 20.3904 0 19.4443V3.36426C0.000142638 2.41845 0.439753 1.54842 1.15625 0.933594C1.86833 0.322807 2.80594 9.8641e-05 3.75684 0H21.8496V18.0869ZM3.74805 18.0801C3.24064 18.0822 2.77887 18.2571 2.45898 18.5312C2.14236 18.803 2.00014 19.1365 2 19.4443C2.00014 19.7523 2.14205 20.0856 2.45898 20.3574C2.78074 20.6334 3.24573 20.8095 3.75684 20.8096H16.8633C16.6561 20.3904 16.5411 19.9269 16.541 19.4443C16.5411 18.9645 16.6554 18.5042 16.8604 18.0869H3.74805V18.0801ZM3.75684 2C3.24596 2.0001 2.78072 2.17543 2.45898 2.45117C2.14236 2.72295 2.00014 3.05644 2 3.36426V16.4697C2.54275 16.2134 3.14702 16.0801 3.75684 16.0801V16.0869H19.8496V2H3.75684Z" fill="#FF8EB1"/>
</svg>

<svg xmlns="http://www.w3.org/2000/svg" width="22" height="23" fill="none" stroke="currentColor" viewBox="0 0 22 23"><path fill="currentColor" d="M21.85 18.087h-1.718A1.98 1.98 0 0 0 19 18.53c-.317.272-.459.606-.459.913s.142.642.459.913c.322.276.787.452 1.298.453h1.654v2H3.757c-.951 0-1.889-.323-2.6-.934C.438 21.261 0 20.39 0 19.444V3.364c0-.946.44-1.816 1.156-2.43C1.868.323 2.806 0 3.756 0H21.85zM3.748 18.08c-.507.002-.97.177-1.289.451-.317.272-.459.606-.459.913s.142.642.459.913c.322.276.787.453 1.298.453h13.106a3.1 3.1 0 0 1-.322-1.366c0-.48.114-.94.32-1.357H3.747zM3.757 2c-.511 0-.976.175-1.298.451-.317.272-.459.605-.459.913V16.47a4.1 4.1 0 0 1 1.757-.39v.007H19.85V2z"/></svg>
